app/static/propofol_molecule_white.svg

<svg clip-rule="evenodd" fill-rule="evenodd" height="91" stroke-linecap="round" stroke-linejoin="round" stroke-miterlimit="10" width="125" xmlns="http://www.w3.org/2000/svg"><g fill="none" stroke="#fff" stroke-width="2.5"><path d="m60.312 39.065c-3.061.894-19.295 13.364-20.365 15.979-2.008 4.909.276 21.653 1.143 23.245.081.148 18.423 9.662 22.668 10.294 1.016.152 19.787-9.584 21.123-12.653.807-1.852.719-23.852-.059-24.19-3.797-1.654-20.966-13.71-24.51-12.675z"/><path d="m66.598 52.663c-10.183-5.735-21.136 11.01-15.191 18.119 5.707 6.825 20.758 7.801 23.645-2.643 1.749-6.324 1.252-10.009-8.454-15.476z"/><path d="m61.19 38.275c-.057.632-.217-2.631-.259-3.015-.143-1.313-.238-2.735-.34-4.079-.351-4.593-.768-8.738-.36-13.306"/><path d="m59.762 2.265c-5.319-2.063-5.737 12.473 2.042 10.139 2.758-.828 1.802-8.647-2.042-10.139z"/><path d="m67.487 3.361c.094-1.051.82 6.753.638 8.794"/><path d="m73.423 2.875c.119-1.334-.04 7.565.767 9.618"/><path d="m69.878 8.451.604.054 1.228-.094.605.054.421-.165.604.053"/><path d="m85.881 51.327c-.031.347 12.589-10.77 17.021-14.476"/><path d="m102.771 36.866c.414-4.649-.183-15.932-.494-20.181"/><path d="m103.652 37.5c5.994 3.697 15.705 7.671 18.574 10.15"/><path d="m39.577 54.616c-.58-1.473-11.816-6.679-17.627-10.263"/><path d="m21.169 43.013c.011-5.663-.516-19.591-.972-22.902"/><path d="m21.169 43.907c-5.914 4.945-12.86 8.803-18.742 13.721"/></g></svg>

<?xml version="1.0" encoding="UTF-8" standalone="no"?><!DOCTYPE svg PUBLIC "-//W3C//DTD SVG 1.1//EN" "http://www.w3.org/Graphics/SVG/1.1/DTD/svg11.dtd"><svg width="125px" height="91px" version="1.1" xmlns="http://www.w3.org/2000/svg" xmlns:xlink="http://www.w3.org/1999/xlink" xml:space="preserve" xmlns:serif="http://www.serif.com/" style="fill-rule:evenodd;clip-rule:evenodd;stroke-linecap:round;stroke-linejoin:round;stroke-miterlimit:10;"><g><path d="M60.312,39.065C57.251,39.959 41.017,52.429 39.947,55.044C37.939,59.953 40.223,76.697 41.09,78.289C41.171,78.437 59.513,87.951 63.758,88.583C64.774,88.735 83.545,78.999 84.881,75.93C85.688,74.078 85.6,52.078 84.822,51.74C81.025,50.086 63.856,38.03 60.312,39.065Z" style="fill:none;fill-rule:nonzero;stroke:white;stroke-width:2.5px;"/><path d="M66.598,52.663C56.415,46.928 45.462,63.673 51.407,70.782C57.114,77.607 72.165,78.583 75.052,68.139C76.801,61.815 76.304,58.13 66.598,52.663Z" style="fill:none;fill-rule:nonzero;stroke:white;stroke-width:2.5px;"/><path d="M61.19,38.275C61.133,38.907 60.973,35.644 60.931,35.26C60.788,33.947 60.693,32.525 60.591,31.181C60.24,26.588 59.823,22.443 60.231,17.875" style="fill:none;fill-rule:nonzero;stroke:white;stroke-width:2.5px;"/><path d="M59.762,2.265C54.443,0.202 54.025,14.738 61.804,12.404C64.562,11.576 63.606,3.757 59.762,2.265Z" style="fill:none;fill-rule:nonzero;stroke:white;stroke-width:2.5px;"/><path d="M67.487,3.361C67.581,2.31 68.307,10.114 68.125,12.155" style="fill:none;fill-rule:nonzero;stroke:white;stroke-width:2.5px;"/><path d="M73.423,2.875C73.542,1.541 73.383,10.44 74.19,12.493" style="fill:none;fill-rule:nonzero;stroke:white;stroke-width:2.5px;"/><path d="M69.878,8.451L70.482,8.505L71.71,8.411L72.315,8.465L72.736,8.3L73.34,8.353" style="fill:none;fill-rule:nonzero;stroke:white;stroke-width:2.5px;"/><path d="M85.881,51.327C85.85,51.674 98.47,40.557 102.902,36.851" style="fill:none;fill-rule:nonzero;stroke:white;stroke-width:2.5px;"/><path d="M102.771,36.866C103.185,32.217 102.588,20.934 102.277,16.685" style="fill:none;fill-rule:nonzero;stroke:white;stroke-width:2.5px;"/><path d="M103.652,37.5C109.646,41.197 119.357,45.171 122.226,47.65" style="fill:none;fill-rule:nonzero;stroke:white;stroke-width:2.5px;"/><path d="M39.577,54.616C38.997,53.143 27.761,47.937 21.95,44.353" style="fill:none;fill-rule:nonzero;stroke:white;stroke-width:2.5px;"/><path d="M21.169,43.013C21.18,37.35 20.653,23.422 20.197,20.111" style="fill:none;fill-rule:nonzero;stroke:white;stroke-width:2.5px;"/><path d="M21.169,43.907C15.255,48.852 8.309,52.71 2.427,57.628" style="fill:none;fill-rule:nonzero;stroke:white;stroke-width:2.5px;"/></g></svg>
